assets/svg/1F418.svg

<svg xmlns="http://www.w3.org/2000/svg" viewBox="0 0 64 64" enable-background="new 0 0 64 64"><g fill="#749498"><path d="m31.18 40.02h-11.308c-.997 0-1.81.825-1.81 1.841v10.908.662 6.364.664.913c0 1.014.813 1.841 1.81 1.841h11.308c.997 0 1.81-.827 1.81-1.841v-.913-.664-4.82-.664-12.45c0-1.016-.813-1.841-1.81-1.841"/><path d="m52.07 40.02h-11.308c-.997 0-1.81.825-1.81 1.841v10.908.662 6.364.664.913c0 1.014.812 1.841 1.81 1.841h11.308c.996 0 1.81-.827 1.81-1.841v-.913-.664-4.82-.664-12.45c0-1.016-.814-1.841-1.81-1.841"/></g><g fill="#7fa3ac"><path d="m61.44 27.899c-1.312 15.763-10.649 23.713-23.789 23.713-13.14 0-23.789-10.616-23.789-23.713 0-13.1 10.652-23.716 23.789-23.716 27.308 0 24.894 10.465 23.789 23.716"/><path d="m54.939 40.02h-10.04c-.888 0-1.606.825-1.606 1.841v10.908.662 6.364.664.913c0 1.014.719 1.841 1.606 1.841h10.04c.883 0 1.604-.827 1.604-1.841v-.913-.664-4.82-.664-12.45c.0001-1.016-.721-1.841-1.604-1.841"/><path d="m62.66 29.1c-.141-2.529-.625-10.112-.625-10.112l-1.356 1.931c-.552 0 .447 3.1-.164 6.97-.155.981-.343 2.02-.45 2.488l-.484.129-.285.788c-.296.817-.339 2.416-.086 3.226.266.86.58 1.703.895 2.535.679 1.798 1.319 3.495 1.446 5.422.031.465.485 5.682-.867 5.056-1.419-3.795-1.067-4.849-1.717-4.942-1.273-.184-.834 5.334.694 6.989.463.5 2.729 2.032 4.103-2.092.858-2.579-1.038-17.2-1.104-18.388"/><path d="m35.467 40.02h-11.306c-1 0-1.812.825-1.812 1.841v10.908.662 6.364.664.913c0 1.014.811 1.841 1.812 1.841h11.306c.995 0 1.811-.827 1.811-1.841v-.913-.664-4.82-.664-12.45c-.0001-1.016-.816-1.841-1.811-1.841"/></g><path d="m15.767 28.27c-.447.672-5.797 1.202-7.573-1.528l1.446 11.03c0 .035-.014.068-.016.105.352.545.68 1.134.944 1.829 1.253 3.277 1.298 7.204-.158 10.212 3.717-1.231 6.401-5.934 6.553-11.635l.014-.535-.07-.335c-.104-.827-.579-4.625-1.14-9.145" fill="#749498"/><g fill="#7fa3ac"><path d="m8.776 47.652l0 0v.002z"/><path d="m12.562 16.673c-.377-2.393-2.312-3.976-4.306-3.522-1.996.448-3.315 2.762-2.936 5.154l3.418 21.698c-.045.679-.465 1.329-.956 1.495l-.209-.438c-1.548-2.59-3.293-2.639-4.2-2.432-1.317.295-3.1 1.879-3.01 3.815.145 2.396 1.116 4.544 2.73 6.05 1.698 1.577 3.895 2.217 6.02 1.753l.062-.008c3.896-.879 6.723-4.913 6.884-9.807l.012-.444-.071-.279c-.287-1.918-3.434-23.01-3.439-23.03m-3.786 30.979v.002"/></g><path d="m16.285 23.408c-3.104 3.458-2.748 28.12-1.01 26.23 3.67-3.987 5.634-10.758 6.592-15.683.813-4.193-1.255-15.369-5.586-10.547" fill="#edcba2"/><path d="m41.724 16.833c-1.046 11.183-8.475 16.83-18.931 16.83-10.456 0-18.931-7.536-18.931-16.83 0-9.297 8.475-16.833 18.931-16.833 21.728 0 19.806 7.425 18.931 16.833" fill="#749498"/><path d="m39.665 16.833c-1.043 11.183-8.474 16.83-18.928 16.83-10.456 0-18.931-7.536-18.931-16.83 0-9.297 8.475-16.833 18.931-16.833 21.727 0 19.806 7.425 18.928 16.833" fill="#7fa3ac"/><path d="m49.775 26.799c-4.319 4.245-9.834 3.651-14.893-.492-5.058-4.142-6.586-10.636-3.416-14.506 3.168-3.87 9.836-3.647 14.893.497 10.509 8.606 7.05 10.936 3.416 14.501" fill="#648082"/><path d="m20.893 13.681c.374 1.985-.637 3.84-2.24 4.151-1.614.307-3.215-1.047-3.583-3.03-.369-1.986.639-3.842 2.248-4.155 1.609-.305 3.212 1.049 3.575 3.037" fill="#25333a"/><path d="m47.774 24.798c-4.319 4.245-9.835 3.651-14.893-.493-5.058-4.142-6.587-10.636-3.417-14.506 3.168-3.87 9.836-3.647 14.893.497 10.51 8.607 7.05 10.937 3.417 14.502" fill="#7fa3ac"/></svg>

<?xml version="1.0" encoding="UTF-8" standalone="no"?>
<!-- Generator: Adobe Illustrator 16.0.0, SVG Export Plug-In . SVG Version: 6.00 Build 0)  -->

<svg
   xmlns:dc="http://purl.org/dc/elements/1.1/"
   xmlns:cc="http://creativecommons.org/ns#"
   xmlns:rdf="http://www.w3.org/1999/02/22-rdf-syntax-ns#"
   xmlns:svg="http://www.w3.org/2000/svg"
   xmlns="http://www.w3.org/2000/svg"
   xmlns:sodipodi="http://sodipodi.sourceforge.net/DTD/sodipodi-0.dtd"
   xmlns:inkscape="http://www.inkscape.org/namespaces/inkscape"
   version="1.1"
   id="Layer_1"
   x="0px"
   y="0px"
   width="64px"
   height="64px"
   viewBox="0 0 64 64"
   enable-background="new 0 0 64 64"
   xml:space="preserve"
   inkscape:version="0.48.5 r10040"
   sodipodi:docname="1F418.svg"
   inkscape:export-filename="D:\TESTINGEMOJI\SVGTEST\1F418.png"
   inkscape:export-xdpi="90"
   inkscape:export-ydpi="90"><metadata
   id="metadata4179"><rdf:RDF><cc:Work
       rdf:about=""><dc:format>image/svg+xml</dc:format><dc:type
         rdf:resource="http://purl.org/dc/dcmitype/StillImage" /><dc:title></dc:title></cc:Work></rdf:RDF></metadata><defs
   id="defs4177" /><sodipodi:namedview
   pagecolor="#ffffff"
   bordercolor="#666666"
   borderopacity="1"
   objecttolerance="10"
   gridtolerance="10"
   guidetolerance="10"
   inkscape:pageopacity="0"
   inkscape:pageshadow="2"
   inkscape:window-width="640"
   inkscape:window-height="480"
   id="namedview4175"
   showgrid="false"
   inkscape:zoom="3.6875"
   inkscape:cx="32"
   inkscape:cy="32"
   inkscape:window-x="448"
   inkscape:window-y="271"
   inkscape:window-maximized="0"
   inkscape:current-layer="Layer_1" />
<g
   id="g4141">
	<path
   d="M 31.181,40.015 H 19.873 c -0.997,0 -1.81,0.825 -1.81,1.841 v 10.908 0.662 6.364 0.664 0.913 c 0,1.014 0.813,1.841 1.81,1.841 h 11.308 c 0.997,0 1.81,-0.827 1.81,-1.841 V 60.454 59.79 54.97 54.306 41.856 c 0,-1.016 -0.813,-1.841 -1.81,-1.841 z"
   id="path4143"
   inkscape:connector-curvature="0"
   style="fill:#749498" />
	<path
   d="M 52.07,40.015 H 40.762 c -0.997,0 -1.81,0.825 -1.81,1.841 v 10.908 0.662 6.364 0.664 0.913 c 0,1.014 0.812,1.841 1.81,1.841 H 52.07 c 0.996,0 1.81,-0.827 1.81,-1.841 V 60.454 59.79 54.97 54.306 41.856 c 0,-1.016 -0.814,-1.841 -1.81,-1.841 z"
   id="path4145"
   inkscape:connector-curvature="0"
   style="fill:#749498" />
	<path
   d="m 61.443,27.899 c -1.312,15.763 -10.649,23.713 -23.789,23.713 -13.138,0 -23.789,-10.616 -23.789,-23.713 0,-13.097 10.652,-23.716 23.789,-23.716 27.308,0 24.894,10.465 23.789,23.716 z"
   id="path4147"
   inkscape:connector-curvature="0"
   style="fill:#7fa3ac" />
	<path
   d="M 54.939,40.015 H 44.901 c -0.888,0 -1.606,0.825 -1.606,1.841 v 10.908 0.662 6.364 0.664 0.913 c 0,1.014 0.719,1.841 1.606,1.841 h 10.038 c 0.883,0 1.604,-0.827 1.604,-1.841 V 60.454 59.79 54.97 54.306 41.856 c 10e-4,-1.016 -0.721,-1.841 -1.604,-1.841 z"
   id="path4149"
   inkscape:connector-curvature="0"
   style="fill:#7fa3ac" />
	<path
   d="M 62.663,29.102 C 62.522,26.573 62.038,18.99 62.038,18.99 l -1.356,1.931 c -0.552,0 0.447,3.1 -0.164,6.97 -0.155,0.981 -0.343,2.017 -0.45,2.488 l -0.484,0.129 -0.285,0.788 c -0.296,0.817 -0.339,2.416 -0.086,3.226 0.266,0.86 0.58,1.703 0.895,2.535 0.679,1.798 1.319,3.495 1.446,5.422 0.031,0.465 0.485,5.682 -0.867,5.056 -1.419,-3.795 -1.067,-4.849 -1.717,-4.942 -1.273,-0.184 -0.834,5.334 0.694,6.989 0.463,0.5 2.729,2.032 4.103,-2.092 0.858,-2.579 -1.038,-17.2 -1.104,-18.388 z"
   id="path4151"
   inkscape:connector-curvature="0"
   style="fill:#7fa3ac" />
	<path
   d="M 35.467,40.015 H 24.161 c -1.001,0 -1.812,0.825 -1.812,1.841 v 10.908 0.662 6.364 0.664 0.913 c 0,1.014 0.811,1.841 1.812,1.841 h 11.306 c 0.995,0 1.811,-0.827 1.811,-1.841 V 60.454 59.79 54.97 54.306 41.856 C 37.277,40.84 36.462,40.015 35.467,40.015 z"
   id="path4153"
   inkscape:connector-curvature="0"
   style="fill:#7fa3ac" />
	<path
   d="M 15.767,28.267 C 15.32,28.939 9.97,29.469 8.194,26.739 L 9.64,37.771 c 0,0.035 -0.014,0.068 -0.016,0.105 0.352,0.545 0.68,1.134 0.944,1.829 1.253,3.277 1.298,7.204 -0.158,10.212 3.717,-1.231 6.401,-5.934 6.553,-11.635 l 0.014,-0.535 -0.07,-0.335 c -0.104,-0.827 -0.579,-4.625 -1.14,-9.145 z"
   id="path4155"
   inkscape:connector-curvature="0"
   style="fill:#749498" />
	<g
   id="g4157">
		<polygon
   points="8.776,47.652 8.776,47.652 8.776,47.654 "
   id="polygon4159"
   style="fill:#7fa3ac" />
		<path
   d="M 12.562,16.673 C 12.185,14.28 10.25,12.697 8.256,13.151 6.26,13.599 4.941,15.913 5.32,18.305 L 8.738,40.003 C 8.693,40.682 8.273,41.332 7.782,41.498 L 7.573,41.06 c -1.548,-2.59 -3.293,-2.639 -4.2,-2.432 -1.317,0.295 -3.1,1.879 -3.012,3.815 0.145,2.396 1.116,4.544 2.73,6.047 1.698,1.577 3.895,2.217 6.023,1.753 l 0.062,-0.008 c 3.896,-0.879 6.723,-4.913 6.884,-9.807 l 0.012,-0.444 -0.071,-0.279 C 15.714,37.787 12.567,16.699 12.562,16.673 z M 8.776,47.652 v 0.002"
   id="path4161"
   inkscape:connector-curvature="0"
   style="fill:#7fa3ac" />
	</g>
	<path
   d="m 16.285,23.408 c -3.104,3.458 -2.748,28.12 -1.006,26.23 3.67,-3.987 5.634,-10.758 6.592,-15.683 0.813,-4.193 -1.255,-15.369 -5.586,-10.547 z"
   id="path4163"
   inkscape:connector-curvature="0"
   style="fill:#edcba2" />
	<path
   d="M 41.724,16.833 C 40.678,28.016 33.249,33.663 22.793,33.663 12.337,33.663 3.862,26.127 3.862,16.833 3.862,7.536 12.337,0 22.793,0 44.521,0 42.599,7.425 41.724,16.833 z"
   id="path4165"
   inkscape:connector-curvature="0"
   style="fill:#749498" />
	<path
   d="M 39.665,16.833 C 38.622,28.016 31.191,33.663 20.737,33.663 10.281,33.663 1.806,26.127 1.806,16.833 1.806,7.536 10.281,0 20.737,0 42.464,0 40.543,7.425 39.665,16.833 z"
   id="path4167"
   inkscape:connector-curvature="0"
   style="fill:#7fa3ac" />
	<path
   d="m 49.775,26.799 c -4.319,4.245 -9.834,3.651 -14.893,-0.492 -5.058,-4.142 -6.586,-10.636 -3.416,-14.506 3.168,-3.87 9.836,-3.647 14.893,0.497 10.509,8.606 7.048,10.936 3.416,14.501 z"
   id="path4169"
   inkscape:connector-curvature="0"
   style="fill:#648082" />
	<path
   d="m 20.893,13.681 c 0.374,1.985 -0.637,3.84 -2.24,4.151 -1.614,0.307 -3.215,-1.047 -3.583,-3.033 -0.369,-1.986 0.639,-3.842 2.248,-4.155 1.609,-0.305 3.212,1.049 3.575,3.037 z"
   id="path4171"
   inkscape:connector-curvature="0"
   style="fill:#25333a" />
	<path
   d="m 47.774,24.798 c -4.319,4.245 -9.835,3.651 -14.893,-0.493 -5.058,-4.142 -6.587,-10.636 -3.417,-14.506 3.168,-3.87 9.836,-3.647 14.893,0.497 10.51,8.607 7.048,10.937 3.417,14.502 z"
   id="path4173"
   inkscape:connector-curvature="0"
   style="fill:#7fa3ac" />
</g>
</svg>
